images/plus.svg

<svg width="16" height="17" viewBox="0 0 16 17" fill="none" xmlns="http://www.w3.org/2000/svg">
<path d="M16 7.38892H9V0.388916H7V7.38892H0V9.38892H7V16.3889H9V9.38892H16V7.38892Z" fill="black"/>
</svg>

<svg width="16" height="17" fill="none" xmlns="http://www.w3.org/2000/svg"><path d="M16 7.389H9v-7H7v7H0v2h7v7h2v-7h7v-2z" fill="#000"/></svg>
